src/assets/icons/traffic-sign-crossing.svg

<?xml version="1.0" standalone="no"?>
<svg id="Nederlands_verkeersbord_J8" width="350" height="300" viewBox="0 0 350 300"
xmlns="http://www.w3.org/2000/svg" version="1.1">

<path id="rode_driehoek" fill="#c1121c"
     d="M 11,300 C 11,300 27.820331,300 11,300 C -3.9165388,300 3.7804912,283.85305 3.7804912,283.85305 L 164.90679,8.074496 C 164.90679,8.074496 161.40064,14.190767 164.90679,8.074496 C 171.16011,-2.85324 179.31089,-2.372093 185.11873,7.601505 L 346.21203,283.85305 C 346.21203,283.85305 353.91732,300 339,300 C 322.17219,300 339,300 339,300 L 11,300" />

<path id="witte_driehoek" fill="#f7fbf5"
     d="M 175.483,73.698 L 283.20852,259.57553 L 66.297261,259.57553 L 175.483,73.698" />

<path id="zwart_symbool" fill="#2a2d2f"
     d="M 224.48982,233.50727 L 144.88729,154.78941 L 127.14012,172.32368 L 206.74264,251.04982 L 224.48982,233.50727 z M 206.74264,154.78941 L 127.14012,233.50727 L 144.88729,251.04982 L 224.48982,172.32368 L 206.74264,154.78941" />

</svg>

<svg xmlns="http://www.w3.org/2000/svg" viewBox="0 0 350 300"><path fill="#c1121c" d="M11 300s16.82 0 0 0c-14.917 0-7.22-16.147-7.22-16.147L164.907 8.074s-3.506 6.117 0 0c6.253-10.927 14.404-10.446 20.212-.472l161.093 276.251S353.917 300 339 300c-16.828 0 0 0 0 0z"/><path fill="#f7fbf5" d="m175.483 73.698 107.726 185.878H66.297z"/><path fill="#2a2d2f" d="m224.49 233.507-79.603-78.718-17.747 17.535 79.603 78.726zm-17.747-78.718-79.603 78.718 17.747 17.543 79.603-78.726z"/></svg>
